icon-themes/breeze_svg/res/sx03219.svg

<svg viewBox="0 0 16 16" xmlns="http://www.w3.org/2000/svg"><path d="m2 2v8.992188l-1 1v.007812h1v2h12v-2.998047h1v-.009765l-1-1.0000005v-7.9921875zm1 1h10v5.9921875l-3.9941406-3.9921875h-.0058594v.0019531h-.0058594l-2.4960937 2.4921875-.4941407-.4941406h-.0039062-.0039062l-2.9960938 2.9941406zm2 1c-.554 0-1 .446-1 1s.446 1 1 1 1-.446 1-1-.446-1-1-1zm4 2.4101562 4 3.9980468v.591797h-2.992188l-2.8007808-2.796875zm-3 2 .5.5 2.0898438 2.0898438h-5.1816407zm-3 3.5898438h6.5898438l.0019531.001953h1.4082031v-.001953h2v1h-10z" fill="#f62459"/></svg>

<svg xmlns="http://www.w3.org/2000/svg" viewBox="0 0 16 16">
 <path 
     style="fill:#f62459" 
     d="M 2 2 L 2 10.992188 L 1 11.992188 L 1 12 L 2 12 L 2 14 L 14 14 L 14 11.001953 L 15 11.001953 L 15 10.992188 L 14 9.9921875 L 14 2 L 2 2 z M 3 3 L 13 3 L 13 8.9921875 L 9.0058594 5 L 9 5 L 9 5.0019531 L 8.9941406 5.0019531 L 6.4980469 7.4941406 L 6.0039062 7 L 6 7 L 5.9960938 7 L 3 9.9941406 L 3 3 z M 5 4 C 4.446 4 4 4.446 4 5 C 4 5.554 4.446 6 5 6 C 5.554 6 6 5.554 6 5 C 6 4.446 5.554 4 5 4 z M 9 6.4101562 L 13 10.408203 L 13 11 L 10.007812 11 L 7.2070312 8.203125 L 9 6.4101562 z M 6 8.4101562 L 6.5 8.9101562 L 8.5898438 11 L 3.4082031 11 L 6 8.4101562 z M 3 12 L 9.5898438 12 L 9.5917969 12.001953 L 11 12.001953 L 11 12 L 13 12 L 13 13 L 3 13 L 3 12 z "
     />
 </svg>
